assets/icons/navigation/tab_salesreport_icon_active.svg

<svg fill="none" height="20" viewBox="0 0 20 20" width="20" xmlns="http://www.w3.org/2000/svg" xmlns:xlink="http://www.w3.org/1999/xlink"><linearGradient id="a" gradientUnits="userSpaceOnUse" x1="26.4942" x2="1.98113" y1="16.5194" y2="5.48151"><stop offset="0" stop-color="#1c9cfc"/><stop offset="1" stop-color="#4cdfff"/></linearGradient><path clip-rule="evenodd" d="m0 1.42688c0-.788047.638835-1.42688 1.42688-1.42688h16.12122c.788 0 1.4269.638835 1.4269 1.42688v2.06601c.6229.46808 1.0253 1.2133 1.0253 2.05385v13.95386c0 .1844-.1015.3538-.2641.4408s-.3599.0775-.5133-.0248l-1.2731-.8487-1.273.8487c-.168.112-.3868.112-.5547 0l-1.2731-.8487-1.2731.8487c-.1679.112-.3867.112-.5547 0l-1.2731-.8487-1.273.8487c-.168.112-.3868.112-.55475 0l-1.27307-.8487-1.27308.8487c-.15343.1023-.3507.1118-.51328.0248s-.26407-.2564-.26407-.4408v-1.4769h-5.16997c-.788044 0-1.42688-.6388-1.42688-1.4269zm18.0237 0v1.62069c-.1896-.04452-.3873-.06806-.5907-.06806h-12.14498c-1.27746 0-2.30883 1.03137-2.30883 2.30883v2.06723c0 .27614.22386.5.5.5h1.55043c.27614 0 .5-.22386.5-.5s-.22386-.5-.5-.5h-1.05043v-1.56723c0-.72518.58366-1.30883 1.30883-1.30883.72518 0 1.30883.58365 1.30883 1.30883v11.78416h-5.16997c-.26268 0-.475629-.213-.475629-.4757v-15.16992c0-.26268.212949-.475629.475629-.475629h16.12122c.2627 0 .4756.212939.4756.475629zm-6.3314 6.1832c0-.27614-.2239-.5-.5-.5h-1.0337c-.2761 0-.49996.22386-.49996.5 0 .27615.22386.5.49996.5h1.0337c.2761 0 .5-.22385.5-.5zm0 2.06725c0-.27614-.2239-.5-.5-.5h-1.0337c-.2761 0-.49996.22386-.49996.5s.22386.49997.49996.49997h1.0337c.2761 0 .5-.22383.5-.49997zm5.6996-.5c.2762 0 .5.22386.5.5s-.2238.49997-.5.49997h-3.876c-.2762 0-.5-.22383-.5-.49997s.2238-.5.5-.5zm.4973-1.56663c0-.27614-.2238-.5-.5-.5h-3.876c-.2762 0-.5.22386-.5.5 0 .27615.2238.50001.5.50001h3.876c.2762 0 .5-.22386.5-.50001zm-1.6642 3.6338c.2762 0 .5.2239.5.5v.0377c.4584.0789.8385.3804 1.0277.7845.117.2501.0092.5478-.2409.6648-.2501.1171-.5478.0093-.6648-.2408-.0631-.1347-.2009-.2288-.3612-.2288h-.2548-.006-.006-.25c-.2213 0-.4044.1831-.4044.4044s.1831.4044.4044.4044h.5168c.7736 0 1.4045.6309 1.4045 1.4044 0 .6921-.505 1.2699-1.1653 1.384v.0373c0 .2762-.2238.5-.5.5-.2761 0-.5-.2238-.5-.5v-.0384c-.4526-.0809-.8266-.3821-1.0191-.7755-.1213-.248-.0187-.5475.2294-.6689.248-.1213.5475-.0187.6689.2294.071.1451.2145.2366.3648.2366h.2322c.0042-.0002.0084-.0004.0127-.0005.0037-.0001.0074-.0001.0111-.0001.008 0 .016.0002.0239.0006h.2369c.2213 0 .4045-.1832.4045-.4045s-.1832-.4044-.4045-.4044h-.5168c-.7735 0-1.4044-.6308-1.4044-1.4044 0-.6904.5025-1.2671 1.1604-1.3831v-.0387c0-.2761.2239-.5.5-.5zm-6.71238 2.3258c-.27614 0-.5.2238-.5.5 0 .2761.22386.5.5.5h3.87608c.2761 0 .5-.2239.5-.5 0-.2762-.2239-.5-.5-.5z" fill="url(#a)" fill-rule="evenodd"/></svg>

<svg width="20" height="20" viewBox="0 0 20 20" fill="none" xmlns="http://www.w3.org/2000/svg">
<path fill-rule="evenodd" clip-rule="evenodd" d="M0 1.42688C0 0.638833 0.638835 0 1.42688 0H17.5481C18.3361 0 18.975 0.638835 18.975 1.42688V3.49289C19.5979 3.96097 20.0003 4.70619 20.0003 5.54674V19.5006C20.0003 19.685 19.8988 19.8544 19.7362 19.9414C19.5736 20.0284 19.3763 20.0189 19.2229 19.9166L17.9498 19.0679L16.6768 19.9166C16.5088 20.0286 16.29 20.0286 16.1221 19.9166L14.849 19.0679L13.5759 19.9166C13.408 20.0286 13.1892 20.0286 13.0212 19.9166L11.7481 19.0679L10.4751 19.9166C10.3071 20.0286 10.0883 20.0286 9.92035 19.9166L8.64728 19.0679L7.3742 19.9166C7.22077 20.0189 7.0235 20.0284 6.86092 19.9414C6.69834 19.8544 6.59685 19.685 6.59685 19.5006V18.0237H1.42688C0.638836 18.0237 0 17.3849 0 16.5968V1.42688ZM18.0237 1.42688V3.04757C17.8341 3.00305 17.6364 2.97951 17.433 2.97951H5.28802C4.01056 2.97951 2.97919 4.01088 2.97919 5.28834V7.35557C2.97919 7.63171 3.20305 7.85557 3.47919 7.85557H5.02962C5.30576 7.85557 5.52962 7.63171 5.52962 7.35557C5.52962 7.07943 5.30576 6.85557 5.02962 6.85557H3.97919V5.28834C3.97919 4.56316 4.56285 3.97951 5.28802 3.97951C6.0132 3.97951 6.59685 4.56316 6.59685 5.28834V17.0725H1.42688C1.1642 17.0725 0.951251 16.8595 0.951251 16.5968V1.42688C0.951251 1.1642 1.1642 0.951251 1.42688 0.951251H17.5481C17.8108 0.951251 18.0237 1.16419 18.0237 1.42688ZM11.6923 7.61008C11.6923 7.33394 11.4684 7.11008 11.1923 7.11008H10.1586C9.8825 7.11008 9.65864 7.33394 9.65864 7.61008C9.65864 7.88623 9.8825 8.11008 10.1586 8.11008H11.1923C11.4684 8.11008 11.6923 7.88623 11.6923 7.61008ZM11.6923 9.67733C11.6923 9.40119 11.4684 9.17733 11.1923 9.17733H10.1586C9.8825 9.17733 9.65864 9.40119 9.65864 9.67733C9.65864 9.95347 9.8825 10.1773 10.1586 10.1773H11.1923C11.4684 10.1773 11.6923 9.95347 11.6923 9.67733ZM17.3919 9.17733C17.6681 9.17733 17.8919 9.40119 17.8919 9.67733C17.8919 9.95347 17.6681 10.1773 17.3919 10.1773H13.5159C13.2397 10.1773 13.0159 9.95347 13.0159 9.67733C13.0159 9.40119 13.2397 9.17733 13.5159 9.17733H17.3919ZM17.8892 7.6107C17.8892 7.33456 17.6654 7.1107 17.3892 7.1107H13.5132C13.237 7.1107 13.0132 7.33456 13.0132 7.6107C13.0132 7.88685 13.237 8.11071 13.5132 8.11071H17.3892C17.6654 8.11071 17.8892 7.88685 17.8892 7.6107ZM16.225 11.2445C16.5012 11.2445 16.725 11.4684 16.725 11.7445V11.7822C17.1834 11.8611 17.5635 12.1626 17.7527 12.5667C17.8697 12.8168 17.7619 13.1145 17.5118 13.2315C17.2617 13.3486 16.964 13.2408 16.847 12.9907C16.7839 12.856 16.6461 12.7619 16.4858 12.7619H16.231L16.225 12.7619L16.219 12.7619H15.969C15.7477 12.7619 15.5646 12.945 15.5646 13.1663C15.5646 13.3876 15.7477 13.5707 15.969 13.5707H16.4858C17.2594 13.5707 17.8903 14.2016 17.8903 14.9751C17.8903 15.6672 17.3853 16.245 16.725 16.3591V16.3964C16.725 16.6726 16.5012 16.8964 16.225 16.8964C15.9489 16.8964 15.725 16.6726 15.725 16.3964V16.358C15.2724 16.2771 14.8984 15.9759 14.7059 15.5825C14.5846 15.3345 14.6872 15.035 14.9353 14.9136C15.1833 14.7923 15.4828 14.8949 15.6042 15.143C15.6752 15.2881 15.8187 15.3796 15.969 15.3796H16.2012C16.2054 15.3794 16.2096 15.3792 16.2139 15.3791C16.2176 15.379 16.2213 15.379 16.225 15.379C16.233 15.379 16.241 15.3792 16.2489 15.3796H16.4858C16.7071 15.3796 16.8903 15.1964 16.8903 14.9751C16.8903 14.7538 16.7071 14.5707 16.4858 14.5707H15.969C15.1955 14.5707 14.5646 13.9399 14.5646 13.1663C14.5646 12.4759 15.0671 11.8992 15.725 11.7832V11.7445C15.725 11.4684 15.9489 11.2445 16.225 11.2445ZM9.51262 13.5703C9.23648 13.5703 9.01262 13.7941 9.01262 14.0703C9.01262 14.3464 9.23648 14.5703 9.51262 14.5703H13.3887C13.6648 14.5703 13.8887 14.3464 13.8887 14.0703C13.8887 13.7941 13.6648 13.5703 13.3887 13.5703H9.51262Z" fill="url(#paint0_linear_1:1437)"/>
<defs>
<linearGradient id="paint0_linear_1:1437" x1="26.4942" y1="16.5194" x2="1.98113" y2="5.48151" gradientUnits="userSpaceOnUse">
<stop stop-color="#1C9CFC"/>
<stop offset="1" stop-color="#4CDFFF"/>
</linearGradient>
</defs>
</svg>
